public/svg/reactJs.svg

<svg width="24" height="24" viewBox="0 0 24 24" fill="none" xmlns="http://www.w3.org/2000/svg">
<g clip-path="url(#clip0)">
<path fill-rule="evenodd" clip-rule="evenodd" d="M18.9626 7.88221C19.2218 7.95901 19.4792 8.04301 19.7342 8.13301C22.3262 9.05281 24.002 10.4934 24.002 11.982C24.002 13.536 22.2122 15.054 19.46 15.9936C19.3148 16.044 19.166 16.0914 19.0136 16.1376C19.0676 16.3566 19.1156 16.5774 19.1588 16.7994C19.7012 19.6266 19.2836 21.951 17.996 22.719C16.7498 23.4618 14.735 22.7322 12.695 20.9232C12.473 20.7252 12.257 20.5224 12.0458 20.3124C11.879 20.4804 11.7116 20.6388 11.5454 20.7888C9.43935 22.6854 7.27695 23.4732 5.98815 22.7064C4.74075 21.9654 4.34895 19.8018 4.85055 17.0784C4.90455 16.7814 4.96815 16.4868 5.04015 16.1934C4.82178 16.1303 4.60529 16.0609 4.39095 15.9852C1.74375 15.0522 0.00195312 13.5156 0.00195312 11.9832C0.00195312 10.4988 1.62495 9.06721 4.16595 8.15521C4.44975 8.05321 4.74615 7.95721 5.05335 7.86661C4.98778 7.59512 4.92896 7.32203 4.87695 7.04761C4.35015 4.27561 4.71915 2.05921 5.97135 1.31221C7.27575 0.534013 9.44835 1.37041 11.615 3.35341C11.75 3.47701 11.8826 3.60361 12.0128 3.73201C12.2072 3.53881 12.407 3.35041 12.611 3.16741C14.6786 1.31101 16.727 0.536413 17.978 1.27981C19.2836 2.05621 19.667 4.41361 19.0814 7.33921C19.0454 7.52101 19.0052 7.70221 18.9626 7.88221ZM18.7676 15.1212C18.9056 15.0792 19.0394 15.0354 19.1714 14.991C21.551 14.181 23.0168 12.9384 23.0168 11.9832C23.0168 11.0856 21.6602 9.92041 19.4348 9.13321C19.205 9.05041 18.9668 8.97241 18.7202 8.89921C18.398 9.95305 18.0072 10.9847 17.5502 11.9874C18.0254 13.0038 18.4323 14.0507 18.7682 15.1212H18.7676ZM18.2996 20.2692C18.4586 19.3854 18.4244 18.2544 18.1832 17.004H18.1844C18.1454 16.8037 18.102 16.6042 18.0542 16.4058C16.9826 16.6548 15.8942 16.8276 14.798 16.923C14.1857 17.8445 13.5124 18.7238 12.7826 19.5552C12.9848 19.755 13.1864 19.9452 13.3874 20.1222C15.1334 21.669 16.7546 22.2558 17.5124 21.804C17.8682 21.5922 18.1562 21.0624 18.2996 20.2686V20.2692ZM6.51375 21.7932C6.86895 22.0038 7.45935 21.9972 8.19855 21.7272H8.19975C9.02295 21.4272 9.95775 20.8326 10.8914 19.9938C11.0474 19.8534 11.1992 19.7088 11.3492 19.56C10.6048 18.7312 9.91537 17.8548 9.28515 16.9362C8.11995 16.8384 7.02915 16.6782 6.04515 16.4538C5.97915 16.7262 5.92155 16.9998 5.86935 17.2758C5.43975 19.605 5.75415 21.3426 6.51315 21.7926L6.51375 21.7932ZM1.92675 13.4538C2.59095 14.0382 3.55875 14.5734 4.73055 14.985V14.9862C4.92735 15.0546 5.12535 15.1182 5.32455 15.1764C5.65125 14.0959 6.04748 13.0377 6.51075 12.0084C6.05344 10.994 5.66242 9.95103 5.34015 8.88601C5.0614 8.96644 4.78526 9.05569 4.51215 9.15361C2.33535 9.93361 1.02975 11.0832 1.02975 11.9832C1.02975 12.4068 1.33155 12.9288 1.92735 13.4544L1.92675 13.4538ZM6.49515 2.22721C5.74095 2.67721 5.44035 4.46941 5.89155 6.84541C5.94075 7.10041 5.99595 7.35421 6.05715 7.60741C7.11422 7.36545 8.18617 7.19387 9.26595 7.09381C9.89078 6.18079 10.5751 5.3099 11.3144 4.48681C11.1955 4.37076 11.0751 4.25635 10.9532 4.14361C9.07815 2.43241 7.30035 1.74841 6.49515 2.22721ZM15.533 8.24161C15.785 8.64841 16.0292 9.06121 16.2644 9.47881C16.5026 9.90181 16.7336 10.3314 16.955 10.7652C17.2598 10.0332 17.5178 9.31921 17.7248 8.63581C17.0013 8.46756 16.2697 8.33599 15.533 8.24161ZM13.4498 6.99841C13.0078 6.38934 12.5356 5.8028 12.035 5.24101C11.531 5.80293 11.0546 6.38902 10.6076 6.99721C11.5544 6.95177 12.5029 6.95217 13.4498 6.99841ZM7.09935 10.7652C7.53279 9.90217 8.00528 9.0593 8.51535 8.23921C7.78307 8.33179 7.05579 8.46034 6.33615 8.62441C6.55635 9.34981 6.81135 10.0644 7.09935 10.7652ZM6.32115 15.4332C7.05296 15.5947 7.79279 15.7175 8.53755 15.801V15.7998C8.01947 14.9727 7.54035 14.1217 7.10175 13.2498C6.80678 13.9648 6.54648 14.6937 6.32175 15.4338L6.32115 15.4332ZM10.6172 17.0178C11.0701 17.6339 11.5526 18.2276 12.0632 18.7968V18.798C12.564 18.2271 13.0352 17.6309 13.475 17.0118C12.5228 17.0529 11.5694 17.0549 10.6172 17.0178ZM17.7728 15.3876C17.5409 14.6489 17.2713 13.9226 16.9652 13.2114C16.524 14.0884 16.045 14.9458 15.5294 15.7812C16.2836 15.6901 17.0325 15.5587 17.7728 15.3876ZM14.225 15.909C14.6293 15.2834 15.0137 14.6451 15.3776 13.995H15.3788C15.746 13.3394 16.0906 12.6714 16.412 11.9922C15.7641 10.6506 15.0308 9.35188 14.2166 8.10421C12.7578 7.99082 11.2924 7.99082 9.83355 8.10421C9.00764 9.3488 8.27638 10.6537 7.64595 12.0078C8.28111 13.3639 9.01655 14.6707 9.84615 15.9174C10.5476 15.9642 11.2742 15.9882 12.0242 15.9882C12.7748 15.9882 13.5116 15.9612 14.225 15.909ZM18.11 7.12501C18.6152 4.59841 18.302 2.67301 17.4968 2.19481C16.7408 1.74781 15.0824 2.37361 13.3076 3.96361C13.118 4.13161 12.9338 4.30681 12.7538 4.48501C13.4889 5.30824 14.168 6.17979 14.7866 7.09381C15.9206 7.20421 17.0042 7.38001 18.0014 7.61761C18.0404 7.45381 18.0764 7.28941 18.1094 7.12561L18.11 7.12501Z" fill="#53C1DE"/>
<path d="M12.0234 9.77404C13.2096 9.77404 14.1696 10.7616 14.1696 11.982C14.1696 13.2024 13.2084 14.1906 12.0234 14.1906C10.8378 14.1906 9.87598 13.2024 9.87598 11.9826C9.87598 10.7628 10.8378 9.77344 12.024 9.77344L12.0234 9.77404Z" fill="#53C1DE"/>
</g>
<defs>
<clipPath id="clip0">
<rect width="24" height="24" fill="white"/>
</clipPath>
</defs>
</svg>

<svg xmlns="http://www.w3.org/2000/svg" width="24" height="24" fill="none" xmlns:v="https://vecta.io/nano"><g clip-path="url(#A)" fill="#53c1de"><path fill-rule="evenodd" d="M18.963 7.882l.772.251c2.592.92 4.268 2.36 4.268 3.849 0 1.554-1.79 3.072-4.542 4.012l-.446.144.145.662c.542 2.827.125 5.152-1.163 5.92-1.246.743-3.261.013-5.301-1.796l-.649-.611-.5.476c-2.106 1.897-4.268 2.684-5.557 1.918-1.247-.741-1.639-2.905-1.138-5.628l.19-.885-.649-.208c-2.647-.933-4.389-2.47-4.389-4.002 0-1.484 1.623-2.916 4.164-3.828l.887-.289-.176-.819c-.527-2.772-.158-4.988 1.094-5.735 1.304-.778 3.477.058 5.644 2.041l.398.379.598-.565c2.068-1.856 4.116-2.631 5.367-1.888 1.306.776 1.689 3.134 1.103 6.059l-.119.543zm-.195 7.239l.404-.13c2.38-.81 3.845-2.053 3.845-3.008 0-.898-1.357-2.063-3.582-2.85l-.715-.234a25.24 25.24 0 0 1-1.17 3.088c.475 1.016.882 2.063 1.218 3.134h-.001zm-.468 5.148c.159-.884.125-2.015-.116-3.265h.001l-.13-.598a23.32 23.32 0 0 1-3.256.517 24.77 24.77 0 0 1-2.015 2.632l.605.567c1.746 1.547 3.367 2.134 4.125 1.682.356-.212.644-.742.787-1.535h0zM6.514 21.793c.355.211.946.204 1.685-.066H8.2c.823-.3 1.758-.895 2.692-1.733l.458-.434a25.6 25.6 0 0 1-2.064-2.624c-1.165-.098-2.256-.258-3.24-.482l-.176.822c-.43 2.329-.115 4.067.644 4.517h.001zm-4.587-8.339c.664.584 1.632 1.12 2.804 1.531v.001l.594.19a26.18 26.18 0 0 1 1.186-3.168A25.73 25.73 0 0 1 5.34 8.886l-.828.268c-2.177.78-3.482 1.93-3.482 2.83 0 .424.302.946.898 1.471h-.001zM6.495 2.227c-.754.45-1.055 2.242-.604 4.618l.166.762a24.52 24.52 0 0 1 3.209-.514 25.2 25.2 0 0 1 2.048-2.607l-.361-.343C9.078 2.432 7.3 1.748 6.495 2.227zm9.038 6.014l.731 1.237.691 1.286.77-2.129c-.723-.168-1.455-.3-2.192-.394zM13.45 6.998a22.55 22.55 0 0 0-1.415-1.757l-1.427 1.756 2.842.001zm-6.35 3.767l1.416-2.526-2.179.385.763 2.141zm-.778 4.668c.732.162 1.472.284 2.216.368V15.8l-1.436-2.55-.78 2.184-.001-.001zm4.296 1.585l1.446 1.779v.001a22.24 22.24 0 0 0 1.412-1.786l-2.858.006zm7.156-1.63a22.71 22.71 0 0 0-.808-2.176l-1.436 2.57a21.31 21.31 0 0 0 2.243-.394zm-3.548.521l1.153-1.914h.001l1.033-2.003a34.83 34.83 0 0 0-2.195-3.888 28.28 28.28 0 0 0-4.383 0 29.83 29.83 0 0 0-2.188 3.904 30.11 30.11 0 0 0 2.2 3.91l2.178.071 2.201-.079zm3.885-8.784c.505-2.527.192-4.452-.613-4.93-.756-.447-2.414.179-4.189 1.769l-.554.521c.735.823 1.414 1.695 2.033 2.609a23.98 23.98 0 0 1 3.215.524l.108-.492.001-.001z"/><path d="M12.023 9.774c1.186 0 2.146.988 2.146 2.208s-.961 2.209-2.146 2.209-2.147-.988-2.147-2.208.962-2.209 2.148-2.209l-.001.001z"/></g><defs><clipPath id="A"><path fill="#fff" d="M0 0h24v24H0z"/></clipPath></defs></svg>
